X:055
T: Mullowney's Jigg
N: O'Farrell's Pocket Companion v.1 (Sky ed. p.42-43)
N: "Irish"
M: 6/8
L: 1/8
R: jig
Q: 320
K: D
A|FGA AFA|AFA AFA|BGG AGF|BGE EGE|
FGA AFA|AFA d2A|B/c/dB AFd|AFD D2 :|
P:2
c/d/|ecA AcA|ecA d2A|GBG FAF|BGE E2 c/d/|
ecA dfa|gfe d2A|dcB AFd|AFD D2:|
P:3
f/g/|a3 g3|fed cBA|GBG FGA|BGE E2 f/g/|
agf gbg|fed cBA|dcB AFd|AFD D2 :|
P:4
[Q:140]
f/g/|a f/g/a/f/ d2f|a f/g/a/f/ d2g| bgf/g/ e2g|
bgf/g/ e2f|a f/g/a/f/ bgg|a f/g/a/f/ d2A|B/c/dB AFd|AFD D2 :|
